src/22/panel/prime-nvidia.svg

<svg xmlns="http://www.w3.org/2000/svg" width="22" height="22" version="1">
 <defs>
  <style id="current-color-scheme" type="text/css">
   .ColorScheme-Text { color:#bebebe; } .ColorScheme-Highlight { color:#5294e2; }
  </style>
 </defs>
 <path style="fill:currentColor" class="ColorScheme-Text" d="m2.1455 10.027s1.8986-2.8224 5.6895-3.1143v-1.0239c-4.1989 0.3395-7.835 3.9226-7.835 3.9226s2.0594 5.9982 7.835 6.5474v-1.0884c-4.2384-0.538-5.6895-5.244-5.6895-5.244zm5.6895 3.079v0.99674c-3.2033-0.576-4.0924-3.931-4.0924-3.931s1.538-1.7166 4.0925-1.995v1.0937c-0.00157 0-0.00263-0.000567-0.00403-0.000567-1.3407-0.1621-2.388 1.0998-2.388 1.0998s0.58704 2.1243 2.3929 2.7356m0-9.1059v1.8886c0.12327-0.00945 0.24653-0.017496 0.37046-0.021761 4.7737-0.1621 7.8841 3.9446 7.8841 3.9446s-3.5724 4.3766-7.2942 4.3766c-0.3411 0-0.66043-0.03189-0.96037-0.08542v1.1679c0.25648 0.03276 0.52241 0.05211 0.7999 0.05211 3.4634 0 5.968-1.7821 8.3933-3.8913 0.40211 0.32446 2.0483 1.1138 2.3867 1.4593-2.306 1.9451-7.6801 3.5131-10.727 3.5131-0.29368 0-0.57573-0.0179-0.85297-0.04485v1.6411h13.164v-14h-13.164zm0 4.1774v-1.2648c0.122-0.00735 0.24492-0.015159 0.37046-0.019202 3.4328-0.10864 5.6849 2.9721 5.6849 2.9721s-2.4325 3.4038-5.0407 3.4038c-0.37536 0-0.7119-0.06076-1.0148-0.16338v-3.8348c1.3363 0.1626 1.6053 0.7578 2.4091 2.1068l1.7868-1.5181s-1.3044-1.7236-3.5033-1.7236c-0.23902-0.000082-0.46773 0.01686-0.69233 0.04096"/>
</svg>

<svg xmlns="http://www.w3.org/2000/svg" width="22" height="22" version="1"><defs><style id="current-color-scheme" type="text/css"></style></defs><path d="M2.146 10.027s1.898-2.822 5.689-3.114V5.889C3.636 6.229 0 9.81 0 9.81s2.06 5.999 7.835 6.548V15.27c-4.238-.538-5.69-5.244-5.69-5.244zm5.689 3.079v.997c-3.203-.576-4.092-3.931-4.092-3.931S5.28 8.455 7.835 8.177V9.27h-.004c-1.34-.162-2.388 1.1-2.388 1.1s.587 2.124 2.393 2.735m0-9.106v1.889c.123-.01.247-.018.37-.022 4.774-.162 7.885 3.945 7.885 3.945s-3.573 4.376-7.295 4.376c-.34 0-.66-.031-.96-.085v1.168c.256.033.522.052.8.052 3.463 0 5.968-1.782 8.393-3.891.402.324 2.048 1.114 2.387 1.459-2.306 1.945-7.68 3.513-10.727 3.513a8.76 8.76 0 0 1-.853-.045V18H21V4H7.836zm0 4.178V6.912c.122-.007.245-.015.37-.02 3.433-.108 5.685 2.973 5.685 2.973s-2.432 3.404-5.04 3.404c-.376 0-.712-.061-1.015-.164V9.27c1.336.163 1.605.758 2.409 2.107l1.787-1.518s-1.305-1.723-3.504-1.723c-.239 0-.467.016-.692.04" fill="currentColor" color="#bebebe"/></svg>
